!!!!SEGMENT: pl-wtm--a-40-382-94_mlynarski-emil--kolysanka.krn
!!!cenid: 18xx:4278
!!!COM: Młynarski, Emil
!!!COM-rismID: pe50043899
!!!CDT: 1870/07/18-1935/04/05
!!!CNT: Polish
!!!OTL: Kołysanka
!!!PDT: 1904
!!!AGN:
!!!YEC: Copyright 2022 Narodowy Instytut Fryderyka Chopina (https://polishscores.org)
!!!YEM: License CC-BY-4.0 (https://creativecommons.org/licenses/by/4.0)
!!!SMS-siglum: PL-Wtm
!!!SMS-shelfmark: A-40.382/94
!!!SMS-shelfwork: W
!!!SMS-variant:
!!!SMS-altvar:
!!!NIFC-rismSourceID: 1001157498
!!!NIFC-rismChildID: 1001157498
!!!NIFC-islandoraID: pl-wtm:3803
!!!URL-pdf-islandora: https://repozytorium.nifc.pl/islandora/object/pl-wtm:3803/datastream/PDF/view
!!!URL-scan: https://polish.musicsources.pl/pl/lokalizacje/galeria/druki-muzyczne/15644/2 @EN{Scan on Polish Music Sources Website} @PL{Skany w portalu Dziedzictwo Muzyki Polskiej w otwartym dostępie}
!!!IIIF:
!!!ONB-nifc:
!!!AIN: 2 piano 1 vox
!!!key: A-
!!!OMD:
!!!OMD-mod: Moderato
!!!filter-modern: sic -sq | shed -e "s/yy//"  | shed -e "s/TX(.*):t=P:/tx$1:t=P:/LG"| shed -k -e "s/:TUP:/:tup:/L" | -shed -e "s/TX(.*):t=P:/tx$1:t=P:/LG" | shed -k -e "s/LO:N:vis/LO:n:vis:/L" | shed -e "s/:rj/:RJ/L" | shed -e "s/LO:DY:(a|b|rj)/LO:dy:$1/L" | shed -e "s/-//B" | modori -m | tie -s | autostem -r | humtr -p
**kern	**kern	**dynam	**kern	**text	**dynam
*part3	*part2	*	*part1	*	*
*staff3	*staff2	*	*staff1	*	*
*I"Piano.	*I"Piano.	*	*I"Spiew.	*	*
*mI"Pianoforte	*mI"Pianoforte	*	*I"Voce	*	*
*I'pf	*I'pf	*	*I'V	*	*
*ICklav	*ICklav	*	*ICvox	*	*
*IGacmp	*IGacmp	*	*IGsolo	*	*
*Ipiano	*Ipiano	*	*Ivox	*	*
*clefF4	*clefG2	*	*clefG2	*	*
*k[b-e-a-d-]	*k[b-e-a-d-]	*	*k[b-e-a-d-]	*	*
*A-:	*A-:	*	*A-:	*	*
*M2/4	*M2/4	*	*M2/4	*	*
=1	=1	=1	=1	=1	=1
*ped	*	*	*	*	*
!	!	!LO:MO:null:mod=p	!LO:TX:a:B:t=Moderato.:mod=	!	!
4AA-/ 4E-	32r	.	2ryy	.	.
!	!	!LO:MO:mod=!null:null	!	!	!
.	(32c/LLL	p	.	.	.
.	32e-/	.	.	.	.
.	32a-/JJJ	.	.	.	.
.	32b-/LLL	.	.	.	.
!	!LO:MO:mod=N[>32a-/	!	!	!	!
.	N[32a-/	.	.	.	.
.	N[>32e-/	.	.	.	.
.	N[32c/JJJ)	.	.	.	.
*clefG2	*	*	*	*	*
8ee-\	4c/N] 4e-N] 4a-N]	.	.	.	.
8r	.	.	.	.	.
*clefF4	*	*	*	*	*
*Xped	*	*	*	*	*
=2	=2	=2	=2	=2	=2
*ped	*	*	*	*	*
4AA-/ 4E-	32r	.	4r	.	.
.	(<32c/LLL	.	.	.	.
.	32e-/	.	.	.	.
.	32a-/JJJ	.	.	.	.
.	32b-/LLL	.	.	.	.
!	!LO:MO:mod=N[>32a-/	!	!	!	!
.	N[32a-/	.	.	.	.
.	N[>32e-/	.	.	.	.
.	N[32c/JJJ)	.	.	.	.
!	!	!	!	!	!
*clefG2	*	*	*	*	*
8ee-\	4c/N] 4e-N] 4a-N]	.	8r	.	.
!	!	!	!	!	!LO:DY:a
8r	.	.	8cc\	Na	p
*clefF4	*	*	*	*	*
*Xped	*	*	*	*	*
=3	=3	=3	=3	=3	=3
*ped	*	*	*	*	*
4AA-/ 4E-	32r	.	8.cc\	ra-	.
.	(32c/LLL	.	.	.	.
.	32e-/	.	.	.	.
.	32a-/JJJ	.	.	.	.
.	32b-/LLL	.	.	.	.
!	!LO:MO:mod=N[>32a-/	!	!	!	!
.	N[32a-/	.	.	.	.
.	N[>32e-/	.	16cc\	-mię	.
.	N[32c/JJJ)	.	.	.	.
*clefG2	*	*	*	*	*
8ee-\	4c/N] 4e-N] 4a-N]	.	8ee-\	mi	.
8r	.	.	8cc\	rzu-	.
*Xped	*	*	*	*	*
*clefF4	*	*	*	*	*
!!LO:LB:g=original	!	!	!	!	!
=4	=4	=4	=4	=4	=4
*ped	*	*	*	*	*
4AA-/ 4F	32r	.	8cc\	-ci-	.
.	(32d-/LLL	.	.	.	.
.	32f/	.	.	.	.
.	32b-/JJJ	.	.	.	.
!	!	!	!	!LO:MO:mod=-ła	!
.	32cc/LLL	.	8b-\	-la	.
!	!LO:MO:mod=N[>32b-/	!	!	!	!
.	N[32b-/	.	.	.	.
.	N[>32f/	.	.	.	.
.	N[32d-/JJJ)	.	.	.	.
*clefG2	*	*	*	*	*
8ff\	4d-/N] 4fN] 4b-N]	.	8r	.	.
8r	.	.	8b-\	Sple-	.
*Xped	*	*	*	*	*
*clefF4	*	*	*	*	*
=5	=5	=5	=5	=5	=5
!LO:TX:b:i:t=segue	!	!	!	!	!
4AA-/ 4E-	32r	.	8dd-\	-cio-	.
.	(32d-/LLL	.	.	.	.
.	32e-/	.	.	.	.
.	32g/JJJ	.	.	.	.
.	32b-/LLL	.	8dd-\	-ne	.
!	!LO:MO:mod=N[>32g/	!	!	!	!
.	N[32g/	.	.	.	.
.	N[>32e-/	.	.	.	.
.	N[32d-/JJJ)	.	.	.	.
*clefG2	*	*	*	*	*
8ee-\	4d-/N] 4e-N] 4gN]	.	8.cc\	swe	.
8r	.	.	.	.	.
.	.	.	16bn\	rą-	.
*clefF4	*	*	*	*	*
=6	=6	=6	=6	=6	=6
4AA-/ 4E-	32r	.	(8bn\L	-czę-	.
.	(32c/LLL	.	.	.	.
.	32e-/	.	.	.	.
.	32a-/JJJ	.	.	.	.
.	32cc/LLL	.	8cc\J)	-ta	.
!	!LO:MO:mod=N[>32a-/	!	!	!	!
.	N[32a-/	.	.	.	.
.	N[>32e-/	.	.	.	.
.	N[32c/JJJ)	.	.	.	.
*clefG2	*	*	*	*	*
8ee-\	4c/N] 4e-N] 4a-N]	.	8r	.	.
!	!	!	!	!	!LO:DY:a
8r	.	.	8cc\	I	<
*clefF4	*	*	*	*	*
!!LO:LB:g=original	!	!	!	!	!
=7	=7	=7	=7	=7	=7
4FF:/ 4C: 4A-:	32r	.	8.ff\	głów-	.
.	(32c/LLL	.	.	.	.
.	32f/	.	.	.	.
.	32a-/JJJ	.	.	.	.
.	32cc/LLL	.	.	.	.
!	!LO:MO:mod=N[>32a-/	!	!	!	!
.	N[32a-/	.	.	.	.
.	N[>32f/	.	16cc\	-kę	[
.	N[32c/JJJ)	.	.	.	.
*clefG2	*	*	*	*	*
8aa-\	4c/N] 4fN] 4a-N]	.	8cc\	wsparł-	.
8r	.	.	8ddn\	-szy	.
*clefF4	*	*	*	*	*
=8	=8	=8	=8	=8	=8
4C\ 4G	32r	.	8ee-\	na	.
.	(32c/LLL	.	.	.	.
.	32e-/	.	.	.	.
.	32g/JJJ	.	.	.	.
.	32cc/LLL	.	8cc\	nich	.
!	!LO:MO:mod=N[>32g/	!	!	!	!
.	N[32g/	.	.	.	.
.	N[>32e-/	.	.	.	.
.	N[32c/JJJ)	.	.	.	.
*clefG2	*	*	*	*	*
8gg\	4c/N] 4e-N] 4gN]	.	8r	.	.
!	!	!	!	!	!LO:DY:a
8r	.	.	8g/	U-	>]
*clefF4	*	*	*	*	*
=9	=9	=9	=9	=9	=9
!	!LO:TX:b:i:t=colla voce	!	!LO:TX:a:i:t=rit.	!	!
4DD-/ 4AA-	32r	.	8.f/	-snę-	.
.	(32F/LLL	.	.	.	.
.	32A-/	.	.	.	.
.	32d-/JJJ	.	.	.	.
.	32f/LLL	.	.	.	.
!	!LO:MO:mod=N[>32d-/	!	!	!	!
.	N[32d-/	.	.	.	.
!	!	!	!	!	!LO:HP:a:t=dim.
.	N[>32A-/	.	16f/	-ła	>
.	N[32F/JJJ)	.	.	.	.
*clefG2	*	*	*	*	*
8ff\	4F/N] 4A-N] 4d-N]	.	8a-/	u-	.
8r	.	.	8b-\	-śmiech-	.
*clefF4	*	*	*	*	*
!!LO:PB:g=original	!	!	!	!	!
=10	=10	=10	=10	=10	=10
*ped	*	*	*	*	*
!	!	!	!LO:TX:a:i:t=a tempo	!	!
4CC/ 4GG	32r	p	4cc\	-nię-	.
.	(32G/LLL	.	.	.	.
.	32c/	.	.	.	.
.	32en/JJJ	.	.	.	.
.	32f/LLL	.	.	.	.
.	32e/	.	.	.	.
.	32c/	.	.	.	.
.	32G/JJJ)	<	.	.	.
4C\ 4G	32r	.	8cc\	-ta	.
.	(32e/LLL	.	.	.	.
.	32g/	.	.	.	.
.	32cc/JJJ	.	.	.	.
.	32ddn/LLL	.	8r	.	.
.	32cc/	[	.	.	.
.	32g/	.	.	.	.
.	32e/JJJ)	.	.	.	.
*clefG2	*	*	*	*	*
=11	=11	=11	=11	=11	=11
*ped	*	*	*	*	*
!	!LO:TX:b:i:t=string:mod=string.	!	!	!	!
4c/ 4g	32r	.	2r	.	.
.	(32een\LLL	.	.	.	.
.	32gg\	.	.	.	.
.	32ccc\JJJ	.	.	.	.
.	32dddn\LLL	.	.	.	.
.	32ccc\	.	.	.	.
.	32gg\	.	.	.	.
.	32ee\JJJ)	>	.	.	.
[4cc\ [4gg	32r	.	.	.	.
*	*8va	*	*	*	*
.	(32eee\LLL	.	.	.	.
.	32ggg\	.	.	.	.
.	32cccc\JJJ	.	.	.	.
.	32dddd\LLL	.	.	.	.
.	32cccc\	.	.	.	.
.	32ggg\	]	.	.	.
.	32eee\JJJ	.	.	.	.
=12	=12	=12	=12	=12	=12
!	!LO:TX:b:i:t=rit.	!	!LO:TX:a:i:t=rit.	!	!
4cc\] 4gg]	4eeeen\)	.	2r	.	.
*ped	*	*	*	*	*
[4cc~\ [4gg	4eeen~\ 4ggg [4eeee	pp	.	.	.
=13	=13	=13	=13	=13	=13
!	!LO:TX:b:i:t=a tempo	!	!	!	!
4.cc~\] 4.gg]	4.eeen~\ 4.ggg 4.eeeen]	.	4r	.	.
.	.	.	8r	.	.
!	!	!	!LO:TX:a:i:t=a tempo	!	!LO:DY:a
8r	8r	.	8cc\	Tyś,	mf
*Xped	*	*	*	*	*
*clefF4	*X8va	*	*	*	*
!!LO:LB:g=original	!	!	!	!	!
=14	=14	=14	=14	=14	=14
*^	*^	*	*	*	*
(2G/	(4D-\	(2b-/	4f\	p	8b-\	dzie-	.
.	.	.	.	.	4b-\	-cię,	.
.	4C\	.	4en\	.	.	.	.
.	.	.	.	.	16a-/	nie	.
.	.	.	.	.	16g/	prze-	.
*	*	*v	*v	*	*	*	*
=15	=15	=15	=15	=15	=15	=15
8B-/L	4F\)	8en/L 8g	.	8g/	-czu-	.
8A-/J)	.	8f/J) 8a-	.	8a-/	-ła	.
(<4AA-/ 4F	4ryy	(4c/ 4f 4cc	.	8r	.	.
.	.	.	.	8cc\	Tyś,	.
*v	*v	*	*	*	*	*
=16	=16	=16	=16	=16	=16
4GG/ 4F	4d-/ 4g 4b- 4dd-	.	[4b-\	dzie-	.
4CC/ 4C	4en/ 4b- 4cc 4een	.	16b-\]	.	.
.	.	.	16b-\	-cię,	.
.	.	.	16a-/	nie	.
.	.	.	16g/	od-	.
=17	=17	=17	=17	=17	=17
*	*^	*	*	*	*
!	!	!	!	!	!	!LO:DY:a
4.FFF/) 4.FF	8b-\	4.f\ 4.cc 4.ff	.	(8g/L	-gad-	>
.	4a-/)	.	.	8a-/J)	-ła	]
!	!	!	!	!	!	!LO:DY:a
.	.	.	.	8r	.	p
8r	8ryy	8r	.	8f/	Co	.
*	*v	*v	*	*	*	*
=18	=18	=18	=18	=18	=18
((2FF/ 2F	8r	.	8.a-/	kry-	.
.	(8F'/ 8B- 8d-	.	.	.	.
.	.	.	16g/	-ją	.
.	4B-~/) 4d- 4f	.	8f/	burz	.
.	.	.	8g/	w swej	.
!!LO:LB:g=original	!	!	!	!	!
=19	=19	=19	=19	=19	=19
!	!	!	!	!	!LO:MO:mod=!LO&colon;HP&colon;t=dim. e molto rit.
!	!	!	!	!	!LO:HP:a:t=dim e molto rit.
2FF/)) 2C	8r	.	4a-/	głę-	>
.	(8A-'/ 8c 8f	.	.	.	.
.	4c~/) 4f 4a-	.	8f/	-bi	.
.	.	.	8f/	Spo-	.
=20	=20	=20	=20	=20	=20
!	!LO:TX:b:i:t=molto rit.	!	!	!	!
(4BBB-/ 4BB-	(4B-~/ 4d- 4f	pp	8.f/	-koj-	.
.	.	.	16f/	-nych	.
4GGG/ 4GG	4B-~/ 4d- 4f	.	8f/	wód	.
.	.	.	(16e-/LL	zwier-	.
.	.	.	16d-/JJ)	.	.
=21	=21	=21	=21	=21	=21
*	*	*	*	*	*^
4.FFF/) 4.FF	4.A-~/) 4.c 4.f	.	[4f/	-ciad-	.	>]
.	.	.	8f/]	-ła	f	.
!	!LO:TX:b:i:t=a tempo	!	!LO:TX:a:i:t=a tempo	!	!	!
8r	8r	.	8ff\	I	.	.
*	*	*	*	*	*v	*v
=22	=22	=22	=22	=22	=22
*	*Xbrackettup	*	*	*	*
!LO:TUP:a	!LO:TUP:a	!	!	!	!
24EE-\LL 24E-	24r	mf	8.ff\	w du-	.
24d-\ 24f	24g\LL 24dd- 24ff	.	.	.	.
24d-\JJ 24f	24g\JJ 24dd- 24ff	.	.	.	.
!LO:TUP:a	!LO:TUP:a	!	!	!	!
24d-\LL 24f	24g\LL 24dd- 24ff	.	.	.	.
24d-\ 24f	24g\ 24dd- 24ff	.	.	.	.
.	.	.	16g/	-szę	.
24d-\JJ 24f-X	24g\JJ 24dd- 24ff-X	.	.	.	.
!LO:TUP:a	!LO:TUP:a	!	!	!	!
24d-\LL 24e-	24g\LL 24dd- 24ee-	.	8g/	twą	.
24d-\ 24e-	24g\ 24dd- 24ee-	.	.	.	.
24d-\JJ 24e-	24g\JJ 24dd- 24ee-	.	.	.	.
!LO:TUP:a	!LO:TUP:a	!	!	!	!
24d-\LL 24e-	24g\LL 24dd- 24ee-	.	8cc\	nie	.
24d-\ 24e-	24g\ 24dd- 24ee-	.	.	.	.
24d-\JJ 24e-	24g\JJ 24dd- 24ee-	.	.	.	.
!!LO:PB:g=original	!	!	!	!	!
=23	=23	=23	=23	=23	=23
*Xtuplet	*Xtuplet	*	*	*	*
24EE-\LL 24E-	24r	.	4b-\	prze-	.
24c\ 24e-	24b-\LL 24ee- 24bb-	.	.	.	.
24c\JJ 24e-	24b-\JJ 24ee- 24bb-	.	.	.	.
24c\LL 24e-	24b-\LL 24ee- 24bb-	.	.	.	.
24c\ 24e-	24b-\ 24ee- 24bb-	.	.	.	.
24c\JJ 24e-	24b-\JJ 24ee- 24bb-	.	.	.	.
24c\LL 24e-	24a-\LL 24ee- 24aa-	.	8a-/	-szły	.
24c\ 24e-	24a-\ 24ee- 24aa-	.	.	.	.
24c\JJ 24e-	24a-\JJ 24ee- 24aa-	.	.	.	.
24c\LL 24e-	24a-\LL 24ee-	.	8a-/	Łzy	.
24c\ 24e-	24a-\ 24ee-	.	.	.	.
24c\JJ 24e-	24a-\JJ 24ee-	.	.	.	.
=24	=24	=24	=24	=24	=24
!	!	!	!LO:MO:mod=!null:null	!	!
!	!	!	!LO:TX:a:t=partia[?]\n>:color=grey	!	!
!	!	!	!LO:TX:t=P:problem: notatka dopisana ołówkiem	!	!
24EE-\LL 24E-	24r	.	8.ee-\	mo-	.
24d-\ 24f	24a-\LL 24dd- 24ff	.	.	.	.
24d-\JJ 24f	24a-\JJ 24dd- 24ff	.	.	.	.
24d-\LL 24f	24a-\LL 24dd- 24ff	.	.	.	.
24d-\ 24f	24a-\ 24dd- 24ff	.	.	.	.
.	.	.	16dd-\	-je	.
24d-\JJ 24f	24a-\JJ 24dd- 24ff	.	.	.	.
24f\LL 24a-	24dd-\LL 24ff 24aa-	.	8ff\	ci-	.
24f\ 24a-	24dd-\ 24ff 24aa-	.	.	.	.
24f\JJ 24a-	24dd-\JJ 24ff 24aa-	.	.	.	.
24f\LL 24a-	24dd-\LL 24ff 24aa-	.	8dd-\	-che,	.
24f\ 24a-	24dd-\ 24ff 24aa-	.	.	.	.
24f\JJ 24a-	24dd-\JJ 24ff 24aa-	.	.	.	.
=25	=25	=25	=25	=25	=25
!	!	!	!	!	!LO:DY:a
24EE-\LL 24E-	24r	.	(4b-\	krwa-	<
24d-\ 24e- 24g	24b-\LL 24ee- 24bb-	.	.	.	.
24d-\JJ 24e- 24g	24b-\JJ 24ee- 24bb-	.	.	.	.
24d-\LL 24e- 24g	24b-\LL 24ee- 24bb-	<	.	.	.
24d-\ 24e- 24g	24b-\ 24ee- 24bb-	.	.	.	.
24d-\JJ 24e- 24g	24b-\JJ 24ee- 24bb-	.	.	.	.
!	!	!	!LO:TX:t=P:problem: 4ee-\ dodatkowa, dopisana ołówkiem	!	!
24d-\LL 24e- 24g	24b-\LL 24ee- 24bb-	.	4ee-\)	-we	[
24d-\ 24e- 24g	24b-\ 24ee- 24bb-	.	.	.	.
24d-\JJ 24e- 24g	24b-\JJ 24ee- 24bb-	.	.	.	.
24d-\LL 24e- 24g	24bn\LL 24ee- 24bbn	[	.	.	.
24d-\ 24e- 24g	24b\ 24ee- 24bb	.	.	.	.
24d-\JJ 24e- 24g	24b\JJ 24ee- 24bb	.	.	.	.
!!LO:LB:g=original	!	!	!	!	!
=26	=26	=26	=26	=26	=26
!	!	!	!	!	!LO:DY:a
24AA-/ 24E-	24r	f	8cc\	Znasz	f
*clefG2	*	*	*	*	*
24c/LL 24e- 24a-	24cc\LL 24ee- 24ccc	.	.	.	.
24c/JJ 24e- 24a-	24cc\JJ 24ee- 24ccc	.	.	.	.
24e-/LL 24a- 24cc	24ee-\LL 24ccc 24eee-	.	16.cc\	tyl-	.
24e-/ 24a- 24cc	24ee-\ 24ccc 24eee-	.	.	.	.
24e-/JJ 24a- 24cc	24ee-\JJ 24ccc 24eee-	.	.	.	.
.	.	.	32cc\	-ko	.
24r	24r	.	8.ee-\	blas-	.
24e-/LL 24f 24dd-	24ee-\LL 24bb- 24eee-	.	.	.	.
24e-/JJ 24f 24dd-	24ee-\JJ 24bb- 24eee-	.	.	.	.
24e-/LL 24g 24dd-	24ee-\LL 24bbn	.	.	.	.
24e-/ 24g 24dd-	24ee-\ 24bb	.	.	.	.
.	.	.	16bn\	-ki	.
24e-/JJ 24g 24dd-	24ee-\JJ 24bb	.	.	.	.
=27	=27	=27	=27	=27	=27
24A-/LL 24e-	24cc\LL 24ee- 24ccc	.	8cc\	zo-	.
24a-/	24cc\ 24ee-	.	.	.	.
24a-/JJ	24cc\JJ 24ee-	.	.	.	.
(24a-/LL	(24cc\LL 24ee-	.	8cc\	-rzy	.
24g/)	24bn\) 24ff	.	.	.	.
24g/JJ	24b\JJ 24ff	.	.	.	.
(24g/LL	(24b\LL 24ff	>	4r	.	.
24a-/)	24cc\) 24ee-	.	.	.	.
24a-/JJ	24cc\JJ 24ee-	.	.	.	.
24a-'/LL	24cc'/LL 24ee-	.	.	.	.
24e-'/	24a-'/ 24cc	.	.	.	.
24c'/JJ	24e-'/JJ 24a-	]]	.	.	.
*clefF4	*	*	*	*	*
=28	=28	=28	=28	=28	=28
24AA-\LL	24r	.	8cc\	Znasz	.
24E-\ 24c	24e-/LL 24a- 24cc	.	.	.	.
24E-\JJ 24c	24e-/JJ 24a- 24cc	.	.	.	.
24E-\LL 24c	24e-/LL 24a- 24cc	.	16.cc\	tyl-	.
24E-\ 24c	24e-/ 24a- 24cc	.	.	.	.
24E-\JJ 24c	24e-/JJ 24a- 24cc	.	.	.	.
.	.	.	32cc\	-ko	.
24r	24r	.	(16ff\KL	blas-	.
24E-\LL 24F 24d-	24e-/LL 24b- 24ee-	.	.	.	.
.	.	.	8ee-\J)	.	.
24E-\JJ 24F 24d-	24e-/JJ 24b- 24ee-	.	.	.	.
24E-\LL 24G 24d-	24e-/LL 24bn	.	.	.	.
24E-\ 24G 24d-	24e-/ 24b	.	.	.	.
.	.	.	16bn\	-ki	.
24E-\JJ 24G 24d-	24e-/JJ 24b	.	.	.	.
!!LO:LB:g=original	!	!	!	!	!
=29	=29	=29	=29	=29	=29
24AA-\LL 24E-	24c/LL 24e- 24a-	.	8cc\	zo-	.
24A-\	24c/ 24e-	.	.	.	.
24A-\JJ	24c/JJ 24e-	.	.	.	.
!	!LO:SIC:o=24c/LL 24e-	!LO:HP:t=dim.	!	!	!
(24A-\LL	(24c/LL 24e-	>	8cc\	-rzy	.
!	!LO:SIC:o=24Bn/ 24f	!	!	!	!
24G\)	24Bn/ 24f)	.	.	.	.
24G\JJ	24B/JJ 24f	.	.	.	.
24G\LL	24B/LL 24f	.	4r	.	.
24A-\	24c/ 24e-	.	.	.	.
24A-\JJ	24c/JJ 24e-	.	.	.	.
24A-\LL	24c/LL 24e-	>	.	.	.
24E-\	24c/ 24e- 24a-	.	.	.	.
24C\JJ	24e-/JJ 24a- 24cc	]]	.	.	.
=30	=30	=30	=30	=30	=30
!	!LO:TX:b:i:t=colla voce	!	!	!	!
4.EE-::/ 4.C:: 4.A-::	4.c::/ 4.a-:: 4.ee-::	p	8r	.	.
!	!	!	!LO:TX:a:i:t=langsamer	!	!LO:DY:a
.	.	.	8cc\	Nad	p
.	.	.	16dd-\	ru-	.
.	.	.	16cc\	-i-	.
8r	8r	.	16b-\	-na-	.
.	.	.	16a-/	-mi	.
=31	=31	=31	=31	=31	=31
4.FF::/ 4.BB-:: 4.A-::	4.dn::/ 4.a-:: 4.cc::	p	(8cc\	wzesz-	.
.	.	.	4dn/)	-łej	.
!	!LO:TX:b:i:t=dolce	!	!	!	!
8r	(8ddnt\	.	8r	.	.
.	16qqcc#X/LL	.	.	.	.
.	16qqdd/JJ	.	.	.	.
=32	=32	=32	=32	=32	=32
*	*^	*	*	*	*
4.E-::\ 4.d-X:: 4.g::	8cccn::/	4.dd-X::\ 4.ff::	.	4r	.	.
.	4ff/)	.	.	.	.	.
.	.	.	.	8r	.	.
!	!LO:TX:b:i:t=a tempo	!	!	!LO:TX:a:i:t=a tempo	!	!LO:DY:a
8r	8r	8ryy	.	8cc\	Na	p
!!LO:PB:g=original	!	!	!	!	!	!
=33	=33	=33	=33	=33	=33	=33
4AA-/ 4E-	32r	2ryyyy	.	8.cc\	ra-	.
.	(<32c/LLL	.	pp	.	.	.
.	32e-/	.	.	.	.	.
.	32a-/JJJ	.	.	.	.	.
.	32b-/LLL	.	.	.	.	.
.	N[>32a-/	.	.	.	.	.
.	N[>32e-/	.	.	16cc\	-mię	.
!	!LO:MO:mod=[<32c/JJJ)	!	!	!	!	!
.	N[32c/JJJ)	.	.	.	.	.
*clefG2	*	*	*	*	*	*
8ee-\	4c/N] 4e-N] 4a-N]	.	.	8ee-\	mi	.
8r	.	.	.	8cc\	rzu-	.
*	*v	*v	*	*	*	*
*clefF4	*	*	*	*	*
=34	=34	=34	=34	=34	=34
4AA-/ 4F	32r	.	8cc\	-ci-	.
.	(32d-/LLL	.	.	.	.
.	32f/	.	.	.	.
.	32b-/JJJ	.	.	.	.
.	32cc/LLL	.	8b-\	-ła	.
.	N[>32b-/	.	.	.	.
.	N[>32f/	.	.	.	.
.	N[32d-/JJJ)	.	.	.	.
*clefG2	*	*	*	*	*
8ff\	4d-/N] 4fN] 4b-N]	.	8r	.	.
8r	.	.	8b-\	Sple-	.
*clefF4	*	*	*	*	*
=35	=35	=35	=35	=35	=35
4AA-/ 4E-	32r	.	8dd-\	-cio-	.
.	(32d-/LLL	.	.	.	.
.	32e-/	.	.	.	.
.	32g/JJJ	.	.	.	.
.	32b-/LLL	.	8dd-\	-ne	.
.	N[>32g/	.	.	.	.
.	N[>32e-/	.	.	.	.
.	N[32d-/JJJ)	.	.	.	.
*clefG2	*	*	*	*	*
8ee-\	4d-/N] 4e-N] 4gN]	.	8.cc\	swe	.
8r	.	.	.	.	.
.	.	.	16bn\	rą-	.
*clefF4	*	*	*	*	*
=36	=36	=36	=36	=36	=36
4AA-/ 4E-	32r	.	(8bn\L	-czę-	.
.	(32c/LLL	.	.	.	.
.	32e-/	.	.	.	.
.	32a-/JJJ	.	.	.	.
.	32cc/LLL	.	8cc\J)	-ta	.
.	N[>32a-/	.	.	.	.
.	N[>32e-/	.	.	.	.
.	N[32c/JJJ)	.	.	.	.
*clefG2	*	*	*	*	*
8ee-\	4c/N] 4e-N] 4a-N]	.	8r	.	.
!	!	!	!	!	!LO:DY:a
8r	.	.	8cc\	I	<
*clefF4	*	*	*	*	*
!!LO:LB:g=original	!	!	!	!	!
=37	=37	=37	=37	=37	=37
4FF:/ 4C: 4A-:	32r	.	8.ff\	głów-	.
.	(32c/LLL	.	.	.	.
.	32f/	.	.	.	.
.	32a-/JJJ	.	.	.	.
.	32cc/LLL	.	.	.	.
.	N[>32a-/	.	.	.	.
.	N[>32f/	.	16cc\	-kę	[
.	N[32c/JJJ)	.	.	.	.
*clefG2	*	*	*	*	*
8aa-\	4c/N] 4fN] 4a-N]	.	8cc\	wsparł-	.
8r	.	.	8ddn\	-szy	.
*clefF4	*	*	*	*	*
=38	=38	=38	=38	=38	=38
4C\ 4G	32r	.	8ee-\	na	.
.	(32c/LLL	.	.	.	.
.	32e-/	.	.	.	.
.	32g/JJJ	>	.	.	.
.	32cc/LLL	.	8cc\	nich	.
.	N[>32g/	.	.	.	.
.	N[>32e-/	.	.	.	.
.	N[32c/JJJ)	.	.	.	.
*clefG2	*	*	*	*	*
8gg\	4c/N] 4e-N] 4gN]	]]	8r	.	.
!	!	!	!	!	!LO:DY:a
8r	.	.	8g/	U-	>
=39	=39	=39	=39	=39	=39
4B-/ 4f	32r	p	8.f/	-snę-	]]
.	(32F/LLL	.	.	.	.
.	32A-/	.	.	.	.
.	32d-/JJJ	.	.	.	.
!	!LO:TX:b:i:t=colla parte	!	!	!	!
.	32f/LLL	.	.	.	.
.	32d-/	.	.	.	.
!	!	!	!LO:TX:a:i:t=rit.	!	!
.	32A-/	.	16f/	-ła	.
.	(32F/JJJ)	.	.	.	.
!LO:MO:null:mod=*clefF4	!	!	!	!	!
*	*	*	*	*	*
!LO:SIC:o=4c;/ 4b-:v	!	!	!	!	!
4EE- 4D-;	4G;/) 4e-	.	8.b-;\	u-	.
.	.	.	16a-/	-śmiech-	.
!LO:MO:mod=!null:null	!	!	!	!	!
*clefF4	*clefF4	*	*	*	*
!!LO:LB:g=original	!	!	!	!	!
=40	=40	=40	=40	=40	=40
!	!	!	!	!	!LO:DY:a
4AAA-/ 4EE-	32r	pp	4a-/	-nię-	pp
!	!LO:TX:b:i:t=a tempo	!	!	!	!
.	(32C\LLL	.	.	.	.
.	32E-\	.	.	.	.
.	32A-\JJJ	.	.	.	.
.	32B-\LLL	.	.	.	.
.	32A-\	.	.	.	.
.	32E-\	.	.	.	.
.	32C\JJJ)	.	.	.	.
*	*clefG2	*	*	*	*
!	!LO:TX:b:i:t=morendo	!	!	!	!
4AA-/ 4E-	32r	.	8a-/	-ta	.
.	(32c/LLL	.	.	.	.
.	32e-/	.	.	.	.
.	32a-/JJJ	.	.	.	.
.	32b-/LLL	.	8r	.	.
.	32a-/	.	.	.	.
.	32e-/	.	.	.	.
.	32c/JJJ)	.	.	.	.
=41	=41	=41	=41	=41	=41
4A-\ 4e-	32r	.	2r	.	.
.	(32cc\LLL	.	.	.	.
.	32ee-\	.	.	.	.
.	32aa-\JJJ	.	.	.	.
.	32bb-\LLL	.	.	.	.
.	32aa-\	.	.	.	.
.	32ee-\	.	.	.	.
.	32cc\JJJ)	.	.	.	.
*clefG2	*	*	*	*	*
4a-\ 4ee-	32r	.	.	.	.
*	*8va	*	*	*	*
.	(32ccc\LLL	.	.	.	.
.	32eee-\	.	.	.	.
.	32aaa-\JJJ	.	.	.	.
.	32bbb-\LLL	.	.	.	.
.	32aaa-\	.	.	.	.
.	32eee-\	.	.	.	.
.	32ccc\JJJ)	.	.	.	.
*	*X8va	*	*	*	*
=42	=42	=42	=42	=42	=42
*	*8va	*	*	*	*
(4aa-~\ 4eee-	(4cccc~\ 4aaaa-	ppp	2r	.	.
4aa-~\) 4eee-	4cccc~\) 4aaaa-	.	.	.	.
=43	=43	=43	=43	=43	=43
2aa-;\ 2eee-	2cccc;\ 2aaaa-	.	2r;	.	.
*	*X8va	*	*	*	*
==	==	==	==	==	==
*-	*-	*-	*-	*-	*-
!!!system-decoration: s1{(s2,s3)}
!!!RDF**kern: > = above
!!!RDF**kern: < = below
!!!RDF**kern: N = linked
!!!ENC: Andrzej Gręziak
!!!END: 2022-11-29
!!!ENC: Jan Barakat
!!!END: 2022-12-05
!!!ENC-modern: Andrzej Borzym
!!!END-modern: 2023-07-10
